X: 14646
T: Gan Ainm
R: polka
M: 2/4
K: Gmajor
B/c/|:dg Bd|GB D>B|c/B/A/B/ cd|ed BB/c/|
dg Bd|GB D>B|c/B/A/B/ cF|1 AG GB/c/:|2 AG GA/G/||
|:F/G/A/B/ cB|Ad f2|g/f/e/d/ cA|GA BA/G/|
F/G/A/B/ cB|Ad f2|fe/f/ gf|1 ed d2:|2 ed d/c/B/c/||

